assets/images/qiche.svg

<svg xmlns="http://www.w3.org/2000/svg" preserveAspectRatio="xMidYMid" width="60" height="32" viewBox="0 0 60 32"><defs><style>.cls-1{fill:#d3d3d3;fill-rule:evenodd}</style></defs><path d="M57.972 26.988h-3.785a4.71 4.71 0 0 1-4.718 4.699 4.711 4.711 0 0 1-4.719-4.699H22.949a2 2 0 0 1-2-2V3.02a2 2 0 0 1 2-2h35.023a2 2 0 0 1 2 2v21.968a2 2 0 0 1-2 2zm-42.443-.043h-1.347c.001.017.005.033.005.05a4.71 4.71 0 0 1-4.718 4.703c-2.606 0-4.719-2.106-4.719-4.703 0-.017.005-.033.005-.05H.91v-2.821l1.283-.29L6.114 6.98h11.859v18.65s-.092 1.315-2.444 1.315zm.376-18.088l-8.167.087-1.161 6.105 9.409-.043-.081-6.149z" class="cls-1"/></svg>

<svg xmlns="http://www.w3.org/2000/svg" xmlns:xlink="http://www.w3.org/1999/xlink" preserveAspectRatio="xMidYMid" width="60" height="32" viewBox="0 0 60 32">
  <defs>
    <style>
      .cls-1 {
        fill: #d3d3d3;
        fill-rule: evenodd;
      }
    </style>
  </defs>
  <path d="M57.972,26.988 L54.187,26.988 C54.185,29.584 52.074,31.687 49.469,31.687 C46.864,31.687 44.753,29.584 44.750,26.988 L22.949,26.988 C21.845,26.988 20.949,26.093 20.949,24.988 L20.949,3.020 C20.949,1.915 21.845,1.020 22.949,1.020 L57.972,1.020 C59.077,1.020 59.972,1.915 59.972,3.020 L59.972,24.988 C59.972,26.093 59.077,26.988 57.972,26.988 ZM15.529,26.945 C15.228,26.945 14.761,26.945 14.182,26.945 C14.183,26.962 14.187,26.978 14.187,26.995 C14.187,29.592 12.075,31.698 9.469,31.698 C6.863,31.698 4.750,29.592 4.750,26.995 C4.750,26.978 4.755,26.962 4.755,26.945 C2.558,26.945 0.910,26.945 0.910,26.945 L0.910,24.124 L2.193,23.834 L6.114,6.980 L17.973,6.980 L17.973,25.630 C17.973,25.630 17.881,26.945 15.529,26.945 ZM15.905,8.857 L7.738,8.944 L6.577,15.049 L15.986,15.006 L15.905,8.857 Z" class="cls-1"/>
</svg>
